X:1
T:Title
%%score 1 2 3 4
L:1/8
M:2/2
K:C
V:1 treble nm="Part_1"
V:2 treble-8 nm="Part_2"
V:3 treble-8 nm="Part_3"
V:4 bass nm="Part_4"
V:1
 G8 | G8 | A8 | _B4 A2 G2 | F8 | G6 F2 | _E4 D4- | D4 G4- | G4 ^F4 | G8 | A8 | _B6 A2 | G4 F4- | %13
 F4 _B4- | B4 A4 | _B8 | d8 | d4 d4 | d8 | c8 | _B4 G4 | A4 _B4- | B2 A2 G4- | G4 ^F4 | G8- | G8 | %26
 _B8 | A8 | _B4 G4 | A4 c4 | _B4 A2 G2- | G2 F2 F4- | F4 _B4 | A4 (3:2:1G6- | (3:2:2G2 F4 F4- | %35
 F4 E4 | F8 | z4 A4 | _B8 | G4 d4- | d4 c4 | _B4 G4 | A4 c4 | _B2 A2 G4- | G4 ^F4 | G8 | G8 | A8 | %48
 _B8 | c6 _B2 | G8 | A8 | (3_B8 A2 G2 | F8 | G8 | A8 | B8 | A4 F4 | A6 G2 | F2 E2 D4 | E4 F4 | %61
 G4 A4 | G4 c4 | _B4 A4- | A2 G2 G4- | G4 ^F4 | G8- | G8 || _B8 | A4 G4- | G4 ^F4 | G8 | z8 | G8- | %74
 G4 A4 | _B8 | A8 | G4 F4- | F4 G4 | A8 | _B4 c4- | c2 B2 _B4- | B4 A4 | _B8- | B8 | z8 | d8 | %87
 d4 d4 | _B8 | d8 | c8 | A8 | _B6 c2 | d6 cB | A4 c4 | _B4 A4- | A2 G2 G4- | G4 F4 | G8- | G8 | %100
 G8 |] %101
V:2
 d8 | e8 | (3:2:2f8 e4 | d4 c2 _B2 | A4 d4 | d6 c2 | _B4 A4 | _B4 c4 | d8 | e8 | f8 | d8 | z8 | %13
 f8 | f4 f4 | d8 | z4 g4- | g2 f2 d4- | d4 e4 | f8 | d8 | f6 e2 | d8- | d8 | B6 c2 | d8 | G8 | z8 | %28
 d8 | f8 | _e4 d4 | c4 f4- | f4 _e4 | f4 c4 | z4 c4- | c8 | A4 d4- | d2 c2 d4 | _B4 G4- | G4 _B4 | %40
 c8 | d8 | z4 A4 | _B4 c4 | d8- | d4 _e4 | d4 g4- | g4 ^f4 | g8 | e8 | d8 | z8 | d8 | d4 d4 | %54
 d4 c2 _B2 | A8 | G8 | z8 | z8 | z8 | c4 d4 | _e4 f4 | _e4 g4- | g4 f4- | f2 e2 d4 | d8 | B8 | %67
 d8 || z8 | z8 | z8 | d8 | _B8 | G8 | z4 d4- | d2 c2 d2 e2 | f8 | z4 d4 | f4 _e4 | d4 f4- | f4 c4 | %81
 f4 _e4 | f8 | f8- | f8 | z8 | f8 | d8 | g6 f2 | d8 | e8 | f8 | d6 c2 | _B4 G4 | A8 | z4 d4 | %96
 _B4 d4- | d8 | B8- | B4 c4 | d8 |] %101
V:3
 G8 | G8 | F8 | G8 | A8 | _B6 A2 | G4 F4 | G8 | A8 | G8 | F8 | G8 | _B8- | B4 d4 | c8 | _B8- | B8 | %17
 _B4 B4 | _B8 | A8 | z4 _B4 | c4 d4 | G4 _B4 | A8 | G8 | z4 _B4- | B4 d4- | d4 c4 | d4 _B4 | %29
 c4 A4 | G4 _B4 | A4 F4 | G8 | F4 E4 | F4 A4 | G8 | F8- | F8 | G8 | _B8 | A8 | _B8 | c8 | d4 G4 | %44
 A8 | G8- | G8 | z8 | G8 | A8 | _B8 | c6 _B2 | G8 | A8 | (3:2:2_B8 A4 | F8 | (3G8 F2 E2 | D8 | %58
 z4 d4- | d2 c2 _B2 A2 | G4 A4 | _B4 c4 | _e8 | d8 | c4 _B4 | A8 | G8- | G8 || d8 | c4 _B4 | A8 | %71
 G8 | z8 | _B8- | B4 A4 | G8 | F8 | _B8 | d4 _e4 | f4 d4- | d4 _e4 | d4 _B4 | c8 | _B8- | B8 | z8 | %86
 _B8 | _B4 B4 | G8 | _B8 | A8 | F8 | G6 A2 | _B2 c2 d4 | c4 A4 | G4 F4 | G4 _B4 | A8 | G8- | G8 | %100
 G8 |] %101
V:4
 G,8 | E,8 | D,8 | z4 G,,4 | D,8 | G,,8 | z4 D,4 | _B,,4 G,,4 | D,8 | G,,8 | z8 | G,6 F,2 | %12
 _E,4 D,2 C,2 | _B,,8 | F,8 | _B,,8 | G,,8 | G,,4 G,,4 | G,8 | F,8 | G,8 | F,4 D,4 | G,8 | D,8 | %24
 G,,8 | G,8- | G,4 D,4 | F,4 A,4 | G,8 | F,8 | G,6 E,2 | F,4 D,4 | G,,8 | z4 C,4 | D,4 F,4 | C,8 | %36
 D,8- | D,8 | G,,8 | z8 | z8 | G,8 | F,6 E,2 | D,4 E,4 | D,8 | G,,8- | G,,8 | D,8 | G,,8 | z8 | %50
 G,8 | F,8 | (3:2:2G,8 F,4 | D,8 | G,,8 | D,8 | G,,8 | z4 D,4 | D,6 E,2 | F,4 G,4 | E,4 D,4 | %61
 G,4 F,4 | C,8 | G,4 D,4 | F,4 G,4 | D,8 | G,,8- | G,,8 || D,8 | F,4 G,4 | D,8 | G,,8- | G,,8 | %73
 G,8- | G,4 F,4 | _E,4 G,4 | D,8 | _E,4 D,4 | _B,,4 z4 | F,8 | _B,4 _A,4 | _B,4 G,4 | F,8 | %83
 _B,,8- | B,,8 | z8 | _B,,8- | B,,4 =B,,4 | _E,6 D,2 | _B,,8 | z8 | D,4 D,4 | G,,8 | G,6 D,2 | %94
 F,8 | G,4 D,4 | _E,4 G,4 | D,8 | G,,8- | G,,8 | G,,8 |] %101

